svg/skateboarding.svg

<svg xmlns="http://www.w3.org/2000/svg" viewBox="0 0 24 24"><path d="M19.78 18.39c.15.15.22.31.22.49 0 .12-.06.29-.18.44-.38.53-.86.94-1.45 1.24-.59.29-1.22.44-1.9.44H7.53c-.71 0-1.36-.15-1.94-.44-.59-.3-1.09-.71-1.46-1.24a.83.83 0 0 1-.13-.44c0-.18.07-.34.2-.49s.3-.22.51-.22c.23 0 .42.1.57.33.41.5.94.86 1.59 1.04l2.95-3.58-1.28-3.89c-.18-.57-.1-1.07.22-1.57L11 6.86H8.8L7 9.77 5.41 8.76 7.75 5h5.37c.42 0 .75.12 1.02.35.26.24.44.45.53.62l.48 1.15C15.5 7.89 16 8.5 16.7 9c.7.45 1.48.69 2.33.69v1.9c-1.09 0-2.08-.27-3-.8a6.1 6.1 0 0 1-2.16-2.08l-1.71 2.7 4.05 2.52v5.66h.26c.45 0 .86-.09 1.26-.31s.73-.47.99-.78c.15-.23.33-.33.53-.33s.38.08.53.22m-5.42-3.14-3.31-2.07.95 3.14-2.76 3.27h5.12zM15 1c-1.1 0-2 .9-2 2s.9 2 2 2 2-.89 2-2-.89-2-2-2M8 21.5c-.41 0-.75.34-.75.75s.34.75.75.75.75-.34.75-.75-.34-.75-.75-.75m8 0c-.41 0-.75.34-.75.75s.34.75.75.75.75-.34.75-.75-.34-.75-.75-.75"/></svg>

<svg xmlns="http://www.w3.org/2000/svg" id="mdi-skateboarding" viewBox="0 0 24 24"><path d="M19.78 18.39C19.93 18.54 20 18.7 20 18.88C20 19 19.94 19.17 19.82 19.32C19.44 19.85 18.96 20.26 18.37 20.56C17.78 20.85 17.15 21 16.47 21H7.53C6.82 21 6.17 20.85 5.59 20.56C5 20.26 4.5 19.85 4.13 19.32C4.04 19.17 4 19.03 4 18.88C4 18.7 4.07 18.54 4.2 18.39S4.5 18.17 4.71 18.17C4.94 18.17 5.13 18.27 5.28 18.5C5.69 19 6.22 19.36 6.87 19.54L9.82 15.96L8.54 12.07C8.36 11.5 8.44 11 8.76 10.5L11 6.86H8.8L7 9.77L5.41 8.76L7.75 5H13.12C13.54 5 13.87 5.12 14.14 5.35C14.4 5.59 14.58 5.8 14.67 5.97L15.15 7.12C15.5 7.89 16 8.5 16.7 9C17.4 9.45 18.18 9.69 19.03 9.69V11.59C17.94 11.59 16.95 11.32 16.03 10.79C15.12 10.26 14.4 9.57 13.87 8.71L12.16 11.41L16.21 13.93V19.59H16.47C16.92 19.59 17.33 19.5 17.73 19.28S18.46 18.81 18.72 18.5C18.87 18.27 19.05 18.17 19.25 18.17S19.63 18.25 19.78 18.39M14.36 15.25L11.05 13.18L12 16.32L9.24 19.59H14.36V15.25M15 1C13.9 1 13 1.9 13 3S13.9 5 15 5 17 4.11 17 3 16.11 1 15 1M8 21.5C7.59 21.5 7.25 21.84 7.25 22.25S7.59 23 8 23C8.41 23 8.75 22.66 8.75 22.25S8.41 21.5 8 21.5M16 21.5C15.59 21.5 15.25 21.84 15.25 22.25S15.59 23 16 23 16.75 22.66 16.75 22.25 16.41 21.5 16 21.5Z" /></svg>
